X: 29
T:Calgarth Hornpipe. WI.029
M:C
Q:180
S:Wm Irwin, 1838 MS, AGG's Transcription
R:Hornpipe
O:England
A:Lake District
Z:vmp.Chris Partington.2005
K:F
"Key sig. Bb in MS"cB|A2F2 F2GA|\
B2G2 G2cB|Acfe dcBA|G2C2 C2cB|!
A2F2 F2GA|BABc defg|abga ecde|f2a2 f2:|!
|:fg|afdf Afcf|afdf bagf|gece Aece|gece gfef|!
dfcf BfAf|GABc defg|abga ecde|f2a2 f2:|]
